X:1
T:Title
%%score { 1 | 2 }
L:1/8
M:6/8
K:D
V:1 treble nm="Grand Piano"
V:2 bass 
V:1
 z3 z2[Q:1/4=100] D | FFF G2 [GB] | [FA]3 [DF]2 [DF] | [EA]2 [CA] [EG]2 [CE] | %4
[M:5/8] [DF]-[DF]- [DF]3 |[M:1/8] [FA] |[M:3/4] BB B d2 B | [FA]3 F2 F | E2 A B2 ^G | %9
[M:5/8] [CEA]-[CEA]- [CEA]3 |[M:3/16] [CGA]3/2 |[M:3/4] [FA]3 [FA] [=F^G][^FA] | %12
 [GB][FA]- [FA]3 [Fd] | d3 d cd |[M:5/8] ed- d3 |[M:1/8] B |[M:3/4] [FA][FA] [FA] [FA]2 [GB] | %17
 [FA]3 [DF]2 [DA] | [Fd][Fd] [B,GB] [DFA]2 [A,DF] |[M:5/8] [A,CE]-[A,CE]- [A,CE]3 | %20
[M:3/16] [CGA]3/2 |[M:3/4] [FA]3 [FA] [=F^G][^FA] | [GB][FA]- [FA]3 [Ad] | d3 d cd | %24
[M:5/8] ed- d3 |[M:1/8] B |[M:3/4] [FA]2 [FA] [FA]2 [GB] | [FA]2 [Fd] d2 B | A2 F [EG]2 [CE] | %29
 [A,DF]4- [A,DF][DGB] | [DFA]2 [A,DF] [A,EG]2[K:bass] [G,CE] |[M:5/8] [F,D]-[F,D]- [F,D]3 |] %32
V:2
 z3 z2 [D,F,] | [D,A,D][D,A,D][D,A,D] [D,B,D]2 [D,D] | [D,D]3 [D,A,]2 [D,A,] | %3
 [C,A,]2 [A,,A,] [A,,A,]2 [A,,A,] |[M:5/8] [D,A,]-[D,A,]- [D,A,]3 |[M:1/8] [D,D] | %6
[M:3/4][K:treble] [G,DG][G,DG] [G,DG] [G,B,G]2 [G,DG] | [D,D]3 [D,A,D]2 [D,A,D] | %8
 [E,A,C]2 [E,CE] [E,DE]2 [E,B,E] |[M:5/8] A,,-A,,- A,,3 |[M:3/16] A,,3/2 | %11
[M:3/4] [D,D]3 [D,D] [D,B,][D,D] | [D,D][D,D]- [D,D]3 [D,A,] | [G,B,G]3 [G,B,G] [G,^A,G][G,B,G] | %14
[M:5/8] [G,B,G][G,B,G]- [G,B,G]3 |[M:1/8] [G,DG] |[M:3/4][K:bass] [D,D][D,D] [D,D] [D,D]2 [D,D] | %17
 [D,D]3 [D,A,]2 [D,F,] | [D,A,][D,A,] D, D,2 D, |[M:5/8] A,,-A,,- A,,3 |[M:3/16] A,,3/2 | %21
[M:3/4] [D,D]3 [D,D] [D,B,][D,D] | [D,D][D,D]- [D,D]3 [D,=C] | [G,B,G]3 [G,B,G] [G,^A,G][G,B,G] | %24
[M:5/8] [G,B,G][G,B,G]- [G,B,G]3 |[M:1/8] [G,DG] |[M:3/4][K:bass] [D,D]2 [D,D] [D,D]2 [D,D] | %27
 [D,D]2 [D,A,][K:treble] [G,B,G]2 [G,DG] | [A,DF]2[K:bass] [A,D] [A,,A,]2 [A,,A,] | D,4- D,G,, | %30
 A,,2 A,, A,,2 A,, |[M:5/8] D,-D,- D,3 |] %32

